!!!OTL: Klosterha&szlig; (203), S. 440f
!!!id: T0386
**kern
*clefG2
*k[f#]
*G:
{8d
=1
8g
8g
8g
8g
8f#
8g
=2
4a
8f#
4d}
=3
{16d
16d
=4
8a
8a
8a
8a
8b
8cc
=5
4.b}
4r
=6
{16b
16b
=7
8b
8b
8b
8b
8b
8ee
=8
4.dd
8dd
8cc}
=9
{16b
16a
=10
8g
8g
8g
8f#
8e
8f#
=11
4.g}
4r
==
*-
!!!minrhy: 16
!!!meters: 6/8 ]  ZZ[4
!!!cut: Klosterha&szlig; (203), S. 440f
!!!reg: Luxemburg
!!!trd: Singendes Volk, Esch-Alzette, 1937 posth.
!!!rhy1: X_  X_X_X_X_X_X_  X__X_X__
!!!rhy2: XX  X_X_X_X_X_X_  X__.0__
!!!key: T0386  16  G 6/8 ]  ZZ[4
!!!mod: HEPTATONIK IONISCH]  AMBITUS[9
!!!kad: -5341
!!!akz: 112-5_223_3355_1-71_
!!!fot: 'a__as'b__c__
!!!for: 'a__aw_aw_aw_
!!!fok: '^__/__/__Vd_
!! PHRAS[AUFTAKTIG]
!!!fkt: Nonnenklage
!!!bem: StraPen, fff Witry, 17.1.1933
!! THILL; Mathias
!! PR[35] 2K[3] 2G[14] 3K[0] 3G[0] 4A[8] 4Ü[0] 5A[0] 6K[0] 6G[0]
!! 7K[0] 7G[0] 8A[0] MEHR[0] SI[24] ABS[37] SR[16] SP[8]
!! ST[9] 2k[11] 2g[27] 3k[0] 3g[0] 4d[3] 4ü[0] 5d[0] 6k[0] 6g[0]
!! 7k[0] 7g[0] 8d[0] mehr[0] si[41] dm[-17] sr[38] sp[3]
!! 1F[10] 2F[56] 3F[23] 4F[0] LF[0] 2P[0] 3P[10] 4P[0] TRI[0] DF[4] AB[39]
!! TF[0] U3K[0] U3[0] U4[0] U4Ü[0] U5[0] U6K[0] U6[0] U7K[0] U7[0]
!! N1[13] N2K[0] N2[21] N3K[0] N3[26] N4[34] N4Ü[0] N5[5] N6K[0] N6[0]
!!!n7k: 0] N7[0] O1[0] O2K[0] O2[0] O3K[0] O3[0] HÖ[0
!!!RNB: symbol: &szlig; = sz ligature (UTF-8: ÃŸ)
